X: 2
T: The Burning Of The Piper's Hut
R: reel
M: 4/4
L: 1/8
K: Emin
Bcde f4 | f2 a2 f2 ed | c2 A2 e2 A2 | c2 ef eAcA |Bcde f4 | f2 a2 f2 ed | c2 A2 f2 c2 |c2 B2 B4 :|Bcde f2 B2 | a2 B2 f2 ed | c2 A2 e2 A2 | c2 ef eAcA |Bcde f2 B2 | a2 B2 f2 ed | c2 A2 f2 c2 | c2 B2 B4 :|Bcde fBce | aBce f2 ed | c2 A2 e2 A2 | c2 ef eAcA |Bcde fBce | aBce f2 ed | c2 A2 f2 c2 | c2 B2 B4 :|Bcde fBBB | aBBB fBBB | cAAA eAAA | c2 ef eAcA |Bcde fBBB | aBBB f2 ed | c2 A2 f2 c2 | c2 B2 B4 :|


